X:1
T:James Gibb editions
T:Le donne belle - Antonelli da Rimini
%%score [ 1 2 3 ]
L:1/8
Q:1/4=100
M:2/2
K:C
V:1 treble-8 nm="Tenor I" snm="T I"
V:2 treble-8 nm="Tenor II" snm="T II"
V:3 bass nm="Bass" snm="B"
V:1
"^Le donne belle""^Cornelio Antonelli da Rimini\n(C16th)" e2 ef g2 f2 | e2 f2 d2 d2 | e4 e4 :: %3
w: Le don- ne bel- le|ch'a Ve- ne- tia|stan- no|
w: E tu cru- de- le|che si bel- la~~an-|co- ra|
[M:2/2][K:treble-8] d2 de (f2 g2) | e2 f2 d2 e2 | d4 d4 :: c2 cd e2 d2 | B2 c2 A2 A2 | B4 B4 :| %9
w: So- le- no per *|sanz' o per di-|let- to|Mos- tra- re le mam-|mel' il bian- co|pet- to.|
w: Mai te la- sci ve-|de- re~~il bian- co|vi- so|Che chi lo mi- ra|gus- ta~~il pa- ra-|di- so.|
V:2
 c2 cd e2 d2 | c2 A2 B2 B2 | c4 c4 ::[M:2/2][K:treble-8] B2 Bc (d2 B2) | c2 [Ac]2 B2 c2 | B4 B4 :: %6
w: Le don- ne bel- le|ch'a Ve- ne- tia|stan- no|So- le- no per *|sanz' o per di-|let- to|
w: E tu cru- de- le|che si bel- la~~an-|co- ra|Mai te la- sci ve-|de- re~~il bian- co|vi- so|
 A2 AB c2 B2 | G2 E2 ^F2 F2 | G4 G4 :| %9
w: Mos- tra- re le mam-|mel' il bian- co|pet- to.|
w: Che chi lo mi- ra|gus- ta~~il pa- ra-|di- so.|
V:3
 A,2 A,B, C2 B,2 | A,2 F,2 G,2 G,2 | C,4 C,4 ::[M:2/2] G,2 G,A, (B,2 G,2) | A,2 F,2 G,2 C,2 | %5
w: Le don- ne bel- le|ch'a Ve- ne- tia|stan- no|So- le- no per *|sanz' o per di-|
w: E tu cru- de- le|che si bel- la~~an-|co- ra|Mai te la- sci ve-|de- re~~il bian- co|
 G,4 G,4 :: F,2 F,G, A,2 G,2 | E,2 C,2 D,2 D,2 | G,,4 G,,4 :| %9
w: let- to|Mos- tra- re le mam-|mel' il bian- co|pet- to.|
w: vi- so|Che chi lo mi- ra|gus- ta~~il pa- ra-|di- so.|

